X: 262
T: Mabou Waltz
M:3/4
R:waltz
L:1/8
D:The Pearl, Phil Cunningham, Aly Bain
Z:Alf Warnock - alf0@rogers.com
Z: Title uncertain. It's Mabou 2 step on the album.
K:D
FA|:"D"d3d ce|"Bm"B3B cB|"D"A3F ED|"D"F4 FA|
"D"d3d ce|"Bdim"B3B cB|"Em"A3G FG|"A7"E4 EF|
"A7"A2 A2 EF|"Em"G2 G2 EF|"A7"A2 A2 EF|"Em"G2 G2 EF|
"A7"A2 B2 c2| c2 B2 A2|[1 "D"D3E FA|!fine!d4 FA:|[2 "D"D3E FE|D4 AB||
"A"ce e2 ef|ec BA AB|ce e2 ef|ec BA Bc|
"E7"B3A Bc|d2 c2 B2|[1 "A"A3F EC|A,4 AB :|[2 "A"A2 E2 F2| "A7"G4 FA||
